svg/gb/ess.svg

<svg xmlns="http://www.w3.org/2000/svg" xmlns:xlink="http://www.w3.org/1999/xlink" width="450" height="300"><path fill="#cf142b" d="M0 0h450v300H0z"/><g id="a" fill="#f7e017" stroke="#000" stroke-width=".8"><path d="M147.341 53.889C289.772.603 358.38 70.44 358.38 70.44c-38.918-6.459-57.775 21.395-57.775 21.395-13.641-8.073-19.351-12.762-19.351-12.762 6.445-2.506 10.26-13.947.17-19.44-9.781-5.324-19.13 6.941-15.123 14.238-54.185-19.695-110.282-1.819-109.732-1.413l-14.444-4.844z" fill="#fff"/><path d="M143.128 66.475c80.243-28.661 141.429-22.707 178.14 8.074l8.024-3.23c-32.9-28.258-81.045-40.368-157.678-17.762-24.715 7.291-28.486 10.092-28.486 10.092z" fill="#96877d" stroke="none"/><path d="M140.994 58.264s-5.325.422-8.125 2.052c-2.799 1.63-3.074 4.468-3.074 4.468s-5.627-.434-7.922 1.246c-2.294 1.68-1.256 5.475-1.256 5.475s-4.734-1.183-6.641-.05c-1.906 1.132-.984 4.581-.984 4.581s-5.593-1.586-7.651.151-.581 6.797-.581 6.797-5.441-1.435-7.448.151c-2.008 1.585-.581 6.192-.581 6.192s-8.218 4.822-3.813 9.012c7.637 5.197 11.312-4.355 11.312-4.355s5.706.44 8.08-.931c2.373-1.372 2.626-3.751 2.626-3.751s4.595.39 7.07-1.133c2.474-1.523 2.828-4.959 2.828-4.959s4.191 1.296 6.262.277c2.07-1.019 2.02-4.355 2.02-4.355s4.141.614 6.161-.384c2.019-.997 1.918-3.606 1.918-3.606s2.929.715 5.555-.182 4.949-3.405 4.949-3.405z"/><path d="M141.012 24.4c-2.267.003-4.613.561-6.488 1.722-5.215 3.229-9.596 12.397 6.854 35.81.094.142 9.254 11.419 10.257 12.681 1.605 2.018 8.422 16.568 8.021 21.412 0 0-2.338-3.054-6.35-3.054s-5.997 1.271-5.194 5.711c.802 4.441 10.748 6.598 15.964 3.369 5.216-3.23 10.033-12.094-6.417-35.508-.098-.149-9.702-11.736-10.694-12.984-1.598-2.01-8.364-16.44-8.02-21.34.192.237 3.349 3.41 7.236 3.41 4.012 0 4.862-2.519 4.059-6.959-.514-2.845-5.186-4.275-9.228-4.27z"/><path d="M158.313 57.798l-15.151-2.968-2.965 15.245 15.151 2.969z"/><path d="M145.301 59.797a5.724 2.52 46.398 0 0 7.908 8.279 5.724 2.52 46.398 1 0-7.908-8.279zm-48.404 29.76l7.366 4.665m.63-11.214l10.03 6.459m-2.206-13.277l12.036 7.178m-4.012-11.821l12.036 7.381m-3.191-14.21l11.799 10.543m-.383-34.437c-6.419-3.432-5.617-5.248-5.617-5.248m8.626 12.918c-4.814 1.211-7.623-1.817-7.623-1.817m21.55 41.117c6.419 3.431 5.617 5.248 5.617 5.248m-8.627-12.918c4.815-1.211 7.624 1.816 7.624 1.816"/></g><use xlink:href="#a" y="86"/><use xlink:href="#a" y="172"/></svg>

<svg xmlns="http://www.w3.org/2000/svg" xmlns:xlink="http://www.w3.org/1999/xlink" width="450" height="300"><path fill="#cf142b" d="M0 0h450v300H0z"/><g id="a" fill="#f7e017" stroke="#000" stroke-width=".8"><path d="M147.341 53.889C289.772.603 358.38 70.44 358.38 70.44c-38.918-6.459-57.775 21.395-57.775 21.395-13.641-8.073-19.351-12.762-19.351-12.762 6.445-2.506 10.26-13.947.17-19.44-9.781-5.324-19.13 6.941-15.123 14.238-54.185-19.695-110.282-1.819-109.732-1.413l-14.444-4.844z" fill="#fff"/><path d="M143.128 66.475c80.243-28.661 141.429-22.707 178.14 8.074l8.024-3.23c-32.9-28.258-81.045-40.368-157.678-17.762-24.715 7.291-28.486 10.092-28.486 10.092z" fill="#96877d" stroke="none"/><path d="M140.994 58.264s-5.325.422-8.125 2.052c-2.799 1.63-3.074 4.468-3.074 4.468s-5.627-.434-7.922 1.246c-2.294 1.68-1.256 5.475-1.256 5.475s-4.734-1.183-6.641-.05c-1.906 1.132-.984 4.581-.984 4.581s-5.593-1.586-7.651.151-.581 6.797-.581 6.797-5.441-1.435-7.448.151c-2.008 1.585-.581 6.192-.581 6.192s-8.218 4.822-3.813 9.012c7.637 5.197 11.312-4.355 11.312-4.355s5.706.44 8.08-.931c2.373-1.372 2.626-3.751 2.626-3.751s4.595.39 7.07-1.133c2.474-1.523 2.828-4.959 2.828-4.959s4.191 1.296 6.262.277c2.07-1.019 2.02-4.355 2.02-4.355s4.141.614 6.161-.384c2.019-.997 1.918-3.606 1.918-3.606s2.929.715 5.555-.182 4.949-3.405 4.949-3.405z"/><path d="M141.012 24.4c-2.267.003-4.613.561-6.488 1.722-5.215 3.229-9.596 12.397 6.854 35.81.094.142 9.254 11.419 10.257 12.681 1.605 2.018 8.422 16.568 8.021 21.412 0 0-2.338-3.054-6.35-3.054s-5.997 1.271-5.194 5.711c.802 4.441 10.748 6.598 15.964 3.369 5.216-3.23 10.033-12.094-6.417-35.508-.098-.149-9.702-11.736-10.694-12.984-1.598-2.01-8.364-16.44-8.02-21.34.192.237 3.349 3.41 7.236 3.41 4.012 0 4.862-2.519 4.059-6.959-.514-2.845-5.186-4.275-9.228-4.27z"/><path d="M158.313 57.798l-15.151-2.968-2.965 15.245 15.151 2.969z"/><path d="M145.301 59.797a5.724 2.52 46.398 0 0 7.908 8.279 5.724 2.52 46.398 1 0-7.908-8.279zM96.897 89.557l7.366 4.665M104.893 83.008l10.03 6.459M112.717 76.19l12.036 7.178M120.741 71.547l12.036 7.381M129.586 64.718l11.799 10.543M141.002 40.824c-6.419-3.432-5.617-5.248-5.617-5.248M144.011 48.494c-4.814 1.211-7.623-1.817-7.623-1.817M157.938 87.794c6.419 3.431 5.617 5.248 5.617 5.248M154.928 80.124c4.815-1.211 7.624 1.816 7.624 1.816"/></g><use xlink:href="#a" y="86"/><use xlink:href="#a" y="172"/></svg>
